gtk-icons/Papirus-GTK/32x32/apps/bluefish.svg

<?xml version="1.0" encoding="UTF-8" standalone="no"?>
<!-- Created with Inkscape (http://www.inkscape.org/) -->

<svg
   xmlns:dc="http://purl.org/dc/elements/1.1/"
   xmlns:cc="http://creativecommons.org/ns#"
   xmlns:rdf="http://www.w3.org/1999/02/22-rdf-syntax-ns#"
   xmlns:svg="http://www.w3.org/2000/svg"
   xmlns="http://www.w3.org/2000/svg"
   xmlns:xlink="http://www.w3.org/1999/xlink"
   xmlns:sodipodi="http://sodipodi.sourceforge.net/DTD/sodipodi-0.dtd"
   xmlns:inkscape="http://www.inkscape.org/namespaces/inkscape"
   id="svg2817"
   height="32"
   width="32"
   version="1.0"
   inkscape:version="0.91 r13725"
   sodipodi:docname="bluefish.svg">
  <sodipodi:namedview
     pagecolor="#ffffff"
     bordercolor="#666666"
     borderopacity="1"
     objecttolerance="10"
     gridtolerance="10"
     guidetolerance="10"
     inkscape:pageopacity="0"
     inkscape:pageshadow="2"
     inkscape:window-width="1600"
     inkscape:window-height="847"
     id="namedview17"
     showgrid="false"
     showguides="true"
     inkscape:zoom="1"
     inkscape:cx="19.706962"
     inkscape:cy="10.860629"
     inkscape:window-x="0"
     inkscape:window-y="29"
     inkscape:window-maximized="1"
     inkscape:current-layer="svg2817" />
  <metadata
     id="metadata57">
    <rdf:RDF>
      <cc:Work
         rdf:about="">
        <dc:format>image/svg+xml</dc:format>
        <dc:type
           rdf:resource="http://purl.org/dc/dcmitype/StillImage" />
        <dc:title></dc:title>
      </cc:Work>
    </rdf:RDF>
  </metadata>
  <defs
     id="defs2819">
    <linearGradient
       inkscape:collect="always"
       id="linearGradient4431">
      <stop
         style="stop-color:#000000;stop-opacity:1;"
         offset="0"
         id="stop4433" />
      <stop
         style="stop-color:#000000;stop-opacity:0;"
         offset="1"
         id="stop4435" />
    </linearGradient>
    <linearGradient
       inkscape:collect="always"
       xlink:href="#linearGradient4431"
       id="linearGradient4437"
       x1="20.912405"
       y1="25.986214"
       x2="20.912405"
       y2="16.134949"
       gradientUnits="userSpaceOnUse" />
  </defs>
  <g
     style="fill:#898989;fill-opacity:1"
     id="g4285"
     transform="matrix(0.08940723,0,0,0.10722878,3.9785076,-16.959227)">
    <g
       style="fill:#898989;fill-opacity:1"
       id="g4287" />
    <g
       style="fill:#898989;fill-opacity:1"
       id="g4291" />
    <g
       style="fill:#898989;fill-opacity:1"
       id="g4293" />
    <g
       style="fill:#898989;fill-opacity:1"
       id="g4295" />
    <g
       style="fill:#898989;fill-opacity:1"
       id="g4297" />
    <g
       style="fill:#898989;fill-opacity:1"
       id="g4299" />
    <g
       style="fill:#898989;fill-opacity:1"
       id="g4301" />
    <g
       style="fill:#898989;fill-opacity:1"
       id="g4303" />
    <g
       style="fill:#898989;fill-opacity:1"
       id="g4305" />
    <g
       style="fill:#898989;fill-opacity:1"
       id="g4307" />
    <g
       style="fill:#898989;fill-opacity:1"
       id="g4309" />
    <g
       style="fill:#898989;fill-opacity:1"
       id="g4311" />
    <g
       style="fill:#898989;fill-opacity:1"
       id="g4313" />
    <g
       style="fill:#898989;fill-opacity:1"
       id="g4315" />
    <g
       style="fill:#898989;fill-opacity:1"
       id="g4317" />
    <g
       style="fill:#898989;fill-opacity:1"
       id="g4319" />
  </g>
  <g
     id="g4186"
     transform="matrix(0.062585,0,0,0.08042158,1.9849692,-3.4694211)">
    <g
       id="g4146">
      <path
         d="m 17.771484,16.005859 c -3.984097,0.114658 -8.2019121,1.763749 -11.8320309,6.257813 -0.6953213,0.861737 -1.9257359,2.415536 -1.9179687,3.785156 0.0076,1.339693 1.2223463,2.82539 1.9179687,3.6875 8.9356769,11.062311 21.4319299,4.881107 25.2441409,1.027344 0.790039,-0.798865 2.206145,-1.132646 3.234375,-0.679688 l 8.398437,3.69336 c 1.028141,0.452064 1.470111,-0.0044 0.988282,-1.019532 l -3.775391,-6.708984 3.775391,-6.80664 c 0.481829,-1.015113 0.03986,-1.471596 -0.988282,-1.019532 l -8.398437,3.69336 c -1.02823,0.452958 -2.444336,0.119177 -3.234375,-0.679688 -2.263501,-2.288171 -7.589198,-5.398045 -13.41211,-5.230469 z"
         transform="matrix(11.190881,0,0,11.190881,-44.763156,-48.865233)"
         id="path4148"
         inkscape:connector-curvature="0"
         sodipodi:nodetypes="scsccccccccccs"
         style="fill:#608ab5;fill-opacity:1" />
    </g>
    <g
       id="g4150" />
    <g
       id="g4152" />
    <g
       id="g4154" />
    <g
       id="g4156" />
    <g
       id="g4158" />
    <g
       id="g4160" />
    <g
       id="g4162" />
    <g
       id="g4164" />
    <g
       id="g4166" />
    <g
       id="g4168" />
    <g
       id="g4170" />
    <g
       id="g4172" />
    <g
       id="g4174" />
    <g
       id="g4176" />
    <g
       id="g4178" />
  </g>
  <g
     transform="matrix(0.062585,0,0,0.08042158,1.9849692,-3.4694211)"
     id="g4395"
     style="opacity:0.1;fill:#000000;fill-opacity:1">
    <g
       id="g4397"
       style="fill:#000000;fill-opacity:1">
      <path
         style="fill:url(#linearGradient4437);fill-opacity:1"
         sodipodi:nodetypes="scccccccs"
         inkscape:connector-curvature="0"
         id="path4399"
         transform="matrix(11.190881,0,0,11.190881,-44.763156,-48.865233)"
         d="m 17.771484,16.005859 c -3.984097,0.114658 -8.2019121,1.763749 -11.8320309,6.257813 -0.6953213,0.861737 -1.9257359,2.366199 -1.9179687,3.735819 l 36.0078126,0 3.775391,-6.757303 c 0.481829,-1.015113 0.03986,-1.471596 -0.988282,-1.019532 l -8.398437,3.69336 c -1.02823,0.452958 -2.444336,0.119177 -3.234375,-0.679688 -2.263501,-2.288171 -7.589198,-5.398045 -13.41211,-5.230469 z" />
    </g>
    <g
       id="g4401"
       style="fill:#000000;fill-opacity:1" />
    <g
       id="g4403"
       style="fill:#000000;fill-opacity:1" />
    <g
       id="g4405"
       style="fill:#000000;fill-opacity:1" />
    <g
       id="g4407"
       style="fill:#000000;fill-opacity:1" />
    <g
       id="g4409"
       style="fill:#000000;fill-opacity:1" />
    <g
       id="g4411"
       style="fill:#000000;fill-opacity:1" />
    <g
       id="g4413"
       style="fill:#000000;fill-opacity:1" />
    <g
       id="g4415"
       style="fill:#000000;fill-opacity:1" />
    <g
       id="g4417"
       style="fill:#000000;fill-opacity:1" />
    <g
       id="g4419"
       style="fill:#000000;fill-opacity:1" />
    <g
       id="g4421"
       style="fill:#000000;fill-opacity:1" />
    <g
       id="g4423"
       style="fill:#000000;fill-opacity:1" />
    <g
       id="g4425"
       style="fill:#000000;fill-opacity:1" />
    <g
       id="g4427"
       style="fill:#000000;fill-opacity:1" />
    <g
       id="g4429"
       style="fill:#000000;fill-opacity:1" />
  </g>
  <circle
     r="1.5"
     cy="13.5"
     cx="7.5"
     id="circle4785"
     style="opacity:0.2;fill:#000000;fill-opacity:1" />
  <circle
     style="opacity:1;fill:#ffffff;fill-opacity:1"
     id="path4244"
     cx="7.5"
     cy="12.5"
     r="1.5" />
  <g
     style="fill:#7a7a7a;fill-opacity:1"
     id="g4358"
     transform="matrix(0.08940723,0,0,0.10722878,3.9785076,-18.959227)">
    <g
       style="fill:#7a7a7a;fill-opacity:1"
       id="g4360" />
    <g
       style="fill:#7a7a7a;fill-opacity:1"
       id="g4364" />
    <g
       style="fill:#7a7a7a;fill-opacity:1"
       id="g4366" />
    <g
       style="fill:#7a7a7a;fill-opacity:1"
       id="g4368" />
    <g
       style="fill:#7a7a7a;fill-opacity:1"
       id="g4370" />
    <g
       style="fill:#7a7a7a;fill-opacity:1"
       id="g4372" />
    <g
       style="fill:#7a7a7a;fill-opacity:1"
       id="g4374" />
    <g
       style="fill:#7a7a7a;fill-opacity:1"
       id="g4376" />
    <g
       style="fill:#7a7a7a;fill-opacity:1"
       id="g4378" />
    <g
       style="fill:#7a7a7a;fill-opacity:1"
       id="g4380" />
    <g
       style="fill:#7a7a7a;fill-opacity:1"
       id="g4382" />
    <g
       style="fill:#7a7a7a;fill-opacity:1"
       id="g4384" />
    <g
       style="fill:#7a7a7a;fill-opacity:1"
       id="g4386" />
    <g
       style="fill:#7a7a7a;fill-opacity:1"
       id="g4388" />
    <g
       style="fill:#7a7a7a;fill-opacity:1"
       id="g4390" />
    <g
       style="fill:#7a7a7a;fill-opacity:1"
       id="g4392" />
  </g>
  <g
     transform="matrix(0.062585,0,0,0.08042158,1.9849692,-3.4694211)"
     id="g4787"
     style="fill:#ffffff;fill-opacity:1">
    <g
       id="g4789"
       style="fill:#ffffff;fill-opacity:1">
      <path
         style="fill:#ffffff;fill-opacity:1;opacity:0.2"
         d="M 11.630859 7.0058594 C 8.8404724 7.1090502 5.8862173 8.5940667 3.34375 12.638672 C 2.85676 13.414225 1.99456 14.81228 2 16.044922 C 2.0007107 16.2059 2.0188996 16.369188 2.046875 16.533203 C 2.2264733 15.442252 2.9231599 14.30848 3.34375 13.638672 C 5.8862173 9.5940667 8.8404724 8.1090502 11.630859 8.0058594 C 15.709118 7.8550429 19.438124 10.653563 21.023438 12.712891 C 21.576766 13.43186 22.568909 13.731876 23.289062 13.324219 L 29.171875 10 C 29.492256 9.8189845 29.724309 9.8088573 29.861328 9.9238281 L 29.863281 9.9179688 C 30.200745 9.0043789 29.891966 8.5931477 29.171875 9 L 23.289062 12.324219 C 22.568909 12.731876 21.576766 12.43186 21.023438 11.712891 C 19.438124 9.6535634 15.709118 6.8550429 11.630859 7.0058594 z M 27.435547 16.541016 L 27.21875 17.044922 L 29.861328 23.078125 C 30.032662 22.934906 30.05075 22.589561 29.863281 22.082031 L 27.435547 16.541016 z "
         transform="matrix(15.97827,0,0,12.434473,-31.716373,43.140424)"
         id="path4791" />
    </g>
    <g
       id="g4793"
       style="fill:#ffffff;fill-opacity:1" />
    <g
       id="g4795"
       style="fill:#ffffff;fill-opacity:1" />
    <g
       id="g4797"
       style="fill:#ffffff;fill-opacity:1" />
    <g
       id="g4799"
       style="fill:#ffffff;fill-opacity:1" />
    <g
       id="g4801"
       style="fill:#ffffff;fill-opacity:1" />
    <g
       id="g4803"
       style="fill:#ffffff;fill-opacity:1" />
    <g
       id="g4805"
       style="fill:#ffffff;fill-opacity:1" />
    <g
       id="g4807"
       style="fill:#ffffff;fill-opacity:1" />
    <g
       id="g4809"
       style="fill:#ffffff;fill-opacity:1" />
    <g
       id="g4811"
       style="fill:#ffffff;fill-opacity:1" />
    <g
       id="g4813"
       style="fill:#ffffff;fill-opacity:1" />
    <g
       id="g4815"
       style="fill:#ffffff;fill-opacity:1" />
    <g
       id="g4817"
       style="fill:#ffffff;fill-opacity:1" />
    <g
       id="g4819"
       style="fill:#ffffff;fill-opacity:1" />
    <g
       id="g4821"
       style="fill:#ffffff;fill-opacity:1" />
  </g>
  <g
     style="fill:#737373;fill-opacity:1"
     id="g4823"
     transform="matrix(0.062585,0,0,0.08042158,1.9849692,-2.4694187)">
    <g
       style="fill:#737373;fill-opacity:1"
       id="g4825" />
    <g
       style="fill:#737373;fill-opacity:1"
       id="g4829" />
    <g
       style="fill:#737373;fill-opacity:1"
       id="g4831" />
    <g
       style="fill:#737373;fill-opacity:1"
       id="g4833" />
    <g
       style="fill:#737373;fill-opacity:1"
       id="g4835" />
    <g
       style="fill:#737373;fill-opacity:1"
       id="g4837" />
    <g
       style="fill:#737373;fill-opacity:1"
       id="g4839" />
    <g
       style="fill:#737373;fill-opacity:1"
       id="g4841" />
    <g
       style="fill:#737373;fill-opacity:1"
       id="g4843" />
    <g
       style="fill:#737373;fill-opacity:1"
       id="g4845" />
    <g
       style="fill:#737373;fill-opacity:1"
       id="g4847" />
    <g
       style="fill:#737373;fill-opacity:1"
       id="g4849" />
    <g
       style="fill:#737373;fill-opacity:1"
       id="g4851" />
    <g
       style="fill:#737373;fill-opacity:1"
       id="g4853" />
    <g
       style="fill:#737373;fill-opacity:1"
       id="g4855" />
    <g
       style="fill:#737373;fill-opacity:1"
       id="g4857" />
  </g>
  <g
     transform="matrix(0.062585,0,0,0.08042158,1.9849692,-3.4694211)"
     id="g4860"
     style="fill:#000000;fill-opacity:1">
    <g
       id="g4862"
       style="fill:#000000;fill-opacity:1">
      <path
         style="fill:#000000;fill-opacity:1;opacity:0.3"
         d="M 29.861328 8.9238281 L 27.21875 15.044922 L 27.435547 15.541016 L 29.863281 9.9179688 C 30.050602 9.4108506 30.032275 9.0672669 29.861328 8.9238281 z M 2.046875 15.533203 C 2.0185212 15.705435 1.9992583 15.876854 2 16.044922 C 2.0053229 17.25063 2.8565491 18.587392 3.34375 19.363281 C 9.6021309 29.319232 18.353436 23.755451 21.023438 20.287109 C 21.576766 19.56814 22.568909 19.268124 23.289062 19.675781 L 29.171875 23 C 29.891966 23.406852 30.200745 22.995638 29.863281 22.082031 L 29.861328 22.078125 C 29.724243 22.192715 29.491939 22.180837 29.171875 22 L 23.289062 18.675781 C 22.568909 18.268124 21.576766 18.56814 21.023438 19.287109 C 18.353436 22.755451 9.6021309 28.319232 3.34375 18.363281 C 2.921597 17.690984 2.2284317 16.597638 2.046875 15.533203 z "
         transform="matrix(15.97827,0,0,12.434473,-31.716373,43.140424)"
         id="path4864" />
    </g>
    <g
       id="g4866"
       style="fill:#000000;fill-opacity:1" />
    <g
       id="g4868"
       style="fill:#000000;fill-opacity:1" />
    <g
       id="g4870"
       style="fill:#000000;fill-opacity:1" />
    <g
       id="g4872"
       style="fill:#000000;fill-opacity:1" />
    <g
       id="g4874"
       style="fill:#000000;fill-opacity:1" />
    <g
       id="g4876"
       style="fill:#000000;fill-opacity:1" />
    <g
       id="g4878"
       style="fill:#000000;fill-opacity:1" />
    <g
       id="g4880"
       style="fill:#000000;fill-opacity:1" />
    <g
       id="g4882"
       style="fill:#000000;fill-opacity:1" />
    <g
       id="g4884"
       style="fill:#000000;fill-opacity:1" />
    <g
       id="g4886"
       style="fill:#000000;fill-opacity:1" />
    <g
       id="g4888"
       style="fill:#000000;fill-opacity:1" />
    <g
       id="g4890"
       style="fill:#000000;fill-opacity:1" />
    <g
       id="g4892"
       style="fill:#000000;fill-opacity:1" />
    <g
       id="g4894"
       style="fill:#000000;fill-opacity:1" />
  </g>
  <g
     style="fill:#626262;fill-opacity:1"
     id="g4896"
     transform="matrix(0.062585,0,0,0.08042158,1.9849692,-4.4694187)">
    <g
       style="fill:#626262;fill-opacity:1"
       id="g4898" />
    <g
       style="fill:#626262;fill-opacity:1"
       id="g4902" />
    <g
       style="fill:#626262;fill-opacity:1"
       id="g4904" />
    <g
       style="fill:#626262;fill-opacity:1"
       id="g4906" />
    <g
       style="fill:#626262;fill-opacity:1"
       id="g4908" />
    <g
       style="fill:#626262;fill-opacity:1"
       id="g4910" />
    <g
       style="fill:#626262;fill-opacity:1"
       id="g4912" />
    <g
       style="fill:#626262;fill-opacity:1"
       id="g4914" />
    <g
       style="fill:#626262;fill-opacity:1"
       id="g4916" />
    <g
       style="fill:#626262;fill-opacity:1"
       id="g4918" />
    <g
       style="fill:#626262;fill-opacity:1"
       id="g4920" />
    <g
       style="fill:#626262;fill-opacity:1"
       id="g4922" />
    <g
       style="fill:#626262;fill-opacity:1"
       id="g4924" />
    <g
       style="fill:#626262;fill-opacity:1"
       id="g4926" />
    <g
       style="fill:#626262;fill-opacity:1"
       id="g4928" />
    <g
       style="fill:#626262;fill-opacity:1"
       id="g4930" />
  </g>
</svg>

<?xml version="1.0" encoding="UTF-8" standalone="no"?>
<!-- Created with Inkscape (http://www.inkscape.org/) -->
<svg id="svg2817" xmlns:rdf="http://www.w3.org/1999/02/22-rdf-syntax-ns#" xmlns="http://www.w3.org/2000/svg" height="32" width="32" version="1.0" xmlns:cc="http://creativecommons.org/ns#" xmlns:xlink="http://www.w3.org/1999/xlink" xmlns:dc="http://purl.org/dc/elements/1.1/">
 <metadata id="metadata57">
  <rdf:RDF>
   <cc:Work rdf:about="">
    <dc:format>image/svg+xml</dc:format>
    <dc:type rdf:resource="http://purl.org/dc/dcmitype/StillImage"/>
    <dc:title/>
   </cc:Work>
  </rdf:RDF>
 </metadata>
 <defs id="defs2819">
  <linearGradient id="linearGradient4437" y2="16.135" gradientUnits="userSpaceOnUse" x2="20.912" y1="25.986" x1="20.912">
   <stop id="stop4433" offset="0"/>
   <stop id="stop4435" stop-opacity="0" offset="1"/>
  </linearGradient>
 </defs>
 <g id="g4285" fill="#898989" transform="matrix(.089407 0 0 .10723 3.9785 -16.959)"></g>
 <g id="g4186" transform="matrix(.062585 0 0 .080422 1.985 -3.4694)">
  <g id="g4146">
   <path id="path4148" d="m17.771 16.006c-3.9841 0.11466-8.2019 1.7637-11.832 6.2578-0.69532 0.86174-1.9257 2.4155-1.918 3.7852 0.0076 1.3397 1.2223 2.8254 1.918 3.6875 8.9357 11.062 21.432 4.8811 25.244 1.0273 0.79004-0.79886 2.2061-1.1326 3.2344-0.67969l8.3984 3.6934c1.0281 0.45206 1.4701-0.0044 0.98828-1.0195l-3.7754-6.709 3.7754-6.8066c0.48183-1.0151 0.03986-1.4716-0.98828-1.0195l-8.3984 3.6934c-1.0282 0.45296-2.4443 0.11918-3.2344-0.67969-2.2635-2.2882-7.5892-5.398-13.412-5.2305z" transform="matrix(11.191 0 0 11.191 -44.763 -48.865)" fill="#608ab5"/>
  </g>
 </g>
 <g id="g4395" opacity=".1" transform="matrix(.062585 0 0 .080422 1.985 -3.4694)">
  <g id="g4397">
   <path id="path4399" d="m17.771 16.006c-3.9841 0.11466-8.2019 1.7637-11.832 6.2578-0.69532 0.86174-1.9257 2.3662-1.918 3.7358h36.008l3.7754-6.7573c0.48183-1.0151 0.03986-1.4716-0.98828-1.0195l-8.3984 3.6934c-1.0282 0.45296-2.4443 0.11918-3.2344-0.67969-2.2635-2.2882-7.5892-5.398-13.412-5.2305z" transform="matrix(11.191 0 0 11.191 -44.763 -48.865)" fill="url(#linearGradient4437)"/>
  </g>
 </g>
 <circle id="circle4785" opacity=".2" cy="13.5" cx="7.5" r="1.5"/>
 <circle id="path4244" cx="7.5" cy="12.5" r="1.5" fill="#fff"/>
 <g id="g4358" fill="#7a7a7a" transform="matrix(.089407 0 0 .10723 3.9785 -18.959)"></g>
 <g id="g4787" fill="#fff" transform="matrix(.062585 0 0 .080422 1.985 -3.4694)">
  <g id="g4789" fill="#fff">
   <path id="path4791" opacity=".2" d="m11.631 7.0059c-2.7905 0.1032-5.7448 1.5882-8.2872 5.6331-0.487 0.775-1.3492 2.173-1.3438 3.406 0.0007 0.161 0.0189 0.324 0.0469 0.488 0.1796-1.091 0.8763-2.225 1.2969-2.894 2.5424-4.0449 5.4967-5.5299 8.2872-5.6331 4.078-0.1509 7.807 2.6481 9.392 4.7071 0.554 0.719 1.546 1.019 2.266 0.611l5.883-3.324c0.32-0.181 0.552-0.1911 0.689-0.0762l0.002-0.0058c0.338-0.9136 0.029-1.3249-0.691-0.918l-5.883 3.324c-0.72 0.408-1.712 0.108-2.266-0.611-1.585-2.0594-5.314-4.858-9.392-4.7071zm15.805 9.5351l-0.217 0.504 2.642 6.033c0.172-0.143 0.19-0.488 0.002-0.996l-2.427-5.541z" transform="matrix(15.978 0 0 12.434 -31.716 43.14)" fill="#fff"/>
  </g>
 </g>
 <g id="g4823" fill="#737373" transform="matrix(.062585 0 0 .080422 1.985 -2.4694)"></g>
 <g id="g4860" transform="matrix(.062585 0 0 .080422 1.985 -3.4694)">
  <g id="g4862">
   <path id="path4864" opacity=".3" d="m29.861 8.9238l-2.642 6.1212 0.217 0.496 2.427-5.623c0.188-0.5071 0.169-0.8507-0.002-0.9942zm-27.814 6.6092c-0.0284 0.172-0.0476 0.344-0.0469 0.512 0.0053 1.206 0.8565 2.542 1.3438 3.318 6.2583 9.956 15.009 4.392 17.679 0.924 0.554-0.719 1.546-1.019 2.266-0.611l5.883 3.324c0.72 0.407 1.029-0.004 0.691-0.918l-0.002-0.004c-0.137 0.115-0.369 0.103-0.689-0.078l-5.883-3.324c-0.72-0.408-1.712-0.108-2.266 0.611-2.67 3.468-11.421 9.032-17.679-0.924-0.4224-0.672-1.1156-1.765-1.2971-2.83z" transform="matrix(15.978 0 0 12.434 -31.716 43.14)"/>
  </g>
 </g>
 <g id="g4896" fill="#626262" transform="matrix(.062585 0 0 .080422 1.985 -4.4694)"></g>
</svg>
